!!!!SEGMENT: pl-wumfc--r282--002-002_paderewski-ignacy-jan--exercises-2-exercise-2.krn
!!!cenid: 18xx:3177
!!!COM: Paderewski, Ignacy Jan
!!!COM-rismID: pe30029943
!!!CDT: 1860/11/18-1941/06/29
!!!CNT: Polish
!!!GTL: [Exercises 2]
!!!OTL: [Exercise] 2
!!!OMV: 002
!!!PDT:
!!!AGN:
!!!SMS-siglum: PL-Wumfc
!!!SMS-shelfmark: R282
!!!SMS-shelfwork: 002-002 G
!!!SMS-variant:
!!!SMS-altvar:
!!!NIFC-rismSourceID: 1001158933
!!!NIFC-rismChildID: 1001158933
!!!NIFC-islandoraID: pl-wumfc:419
!!!URL-pdf-islandora: https://repozytorium.nifc.pl/islandora/object/pl-wumfc%3A419/datastream/PDF/view
!!!URL-scan: https://polish.musicsources.pl/pl/lokalizacje/galeria/rekopisy/4702 @EN{Scan on Polish Music Sources Website} @PL{Skany w portalu Dziedzictwo Muzyki Polskiej w otwartym dostępie}
!!!ONB-nifc: UWAGA: druga grupa ćwiczeń od skanu 0008
!!!AIN: 1 piano
!!!key: G
!!!filter-modern: sic -sq | shed -e "s/TX(.*):t=P:/tx$1:t=P:/LG" | autostem -r | modori -m |
**kern	**kern
*part1	*part1
*staff2	*staff1
*I"[Pianoforte]	*I"[Pianoforte]
*I'	*I'
*mI"Pianoforte	*mI"Pianoforte
*mI'pf	*mI'pf
*Ipiano	*Ipiano
*ICklav	*ICklav
*IGsolo	*IGsolo
*clefF4	*clefG2
*k[f#]	*k[f#]
*G:	*G:
!LO:MO:null:mod=*M12/4	!LO:MO:null:mod=*M12/4
*	*
!LO:TX:a:i:t=C. f.	!LO:TX:t=P:problem=brak oznaczenia metrycznego / kluczy
2.G\	4gg\
.	4ff#\
.	[>4ee\
=1	=1
2.G\	4ee\]
.	4dd\
.	[>4cc\
2.F#\	4cc\]
.	4a\
.	[>4dd\
2.E\	4dd\]
.	4cc\
.	[<4g/
2.D\	4g/]
.	4f#/
.	[<4a/
=2	=2
2.G\	4a/]
.	4b/
.	[<4g/
2.A\	4g/]
.	4f#/
.	4e/
!	!LO:N:vis=2
2.B;\	2.d;/
2.B\	4b/
.	4a/
.	[<4g/
=3	=3
2.B\	4g/]
.	4gg/
.	[>4ff#/
2.B\	4ff#/]
.	4gg/
.	[>4dd/
2.A\	4dd/]
.	4cc/
.	[>4ee/
2.G\	4ee/]
.	4b/
.	[>4dd/
=4	=4
2.c\	4dd/]
.	4ee/
.	[<4cc/
2.B\	4cc/]
.	4dd/
.	4g/
2.A;\	2.a;/
2.G\	4b/
.	4cc/
.	[>4dd/
=5	=5
2.A\	4dd/]
.	4cc/
.	[>4a/
2.B\	4a/]
.	4g/
.	[>4gg/
2.A\	4gg/]
.	4ff#/
.	[>4ee/
2.G\	4ee/]
.	4b/
.	[>4dd/
!!LO:LB:g=original
=6	=6
2.E\	4dd/]
.	4cc/
.	[>4ee/
2.F#\	4ee/]
.	4dd/
.	4cc/
2.G;\	2.b;/
2.d\	4a/
.	4b/
.	[<4a/
=7	=7
2.B\	4a/]
.	4g/
.	[>4dd/
2.G\	4dd/]
.	4ee/
.	[<4dd/
2.A\	4dd/]
.	4cc/
.	[>4aa/
2.c\	4aa/]
.	4gg/
.	[>4ee/
=8	=8
*	*^
2.B\	4ee/]	2ryy
.	4dd/	.
.	[>4g/	[<4d\
2.A\	4g/]	(<4d\]
.	4f#/	4e\)
.	4a/	4f#\
2.G\	2.b;/	2.g\
*	*v	*v
==	==
*-	*-
!!!system-decoration: {(s1,s2)}
!!!RDF**kern: > = above
!!!RDF**kern: < = below
!!!ENC: Filip Voros
!!!END: 2021-11-12
!!!ENC: Andrzej Kubiczek
!!!END: 2021-11-16
!!!ENC-modern: Andrzej Borzym
!!!END-modern: 2022-08-29
!!!YEC: Copyright 2022 Narodowy Instytut Fryderyka Chopina (https://polishscores.org)
!!!YEM: License CC-BY-4.0 (https://creativecommons.org/licenses/by/4.0)
